src/symbolic/status/network-vpn-acquiring-symbolic.svg

<svg xmlns="http://www.w3.org/2000/svg" width="16" height="16" version="1.1">
 <path style="fill:#444444" d="M 5,8 A 2,2 0 0 1 3,10 2,2 0 0 1 1,8 2,2 0 0 1 3,6 2,2 0 0 1 5,8 Z"/>
 <path style="fill:#444444" d="M 10,8 A 2,2 0 0 1 8,10 2,2 0 0 1 6,8 2,2 0 0 1 8,6 2,2 0 0 1 10,8 Z"/>
 <path style="fill:#444444" d="M 15,8 A 2,2 0 0 1 13,10 2,2 0 0 1 11,8 2,2 0 0 1 13,6 2,2 0 0 1 15,8 Z"/>
 <path style="fill:#444444;opacity:0.3" d="M 4.5 4 C 3.4389 4 2.4756 4.384 1.7051 5 L 7.3086 5 C 6.5289 4.3726 5.5516 4 4.5 4 z M 0.75977 11 C 1.5681 12.206 2.9428 13 4.5 13 C 6.0263 13 7.4028 12.226 8.2246 11 L 0.75977 11 z M 12 11 L 12 12 L 15 12 L 15 11 L 12 11 z"/>
</svg>

<svg xmlns="http://www.w3.org/2000/svg" width="16" height="16"><path d="M5 8a2 2 0 0 1-2 2 2 2 0 0 1-2-2 2 2 0 0 1 2-2 2 2 0 0 1 2 2zM10 8a2 2 0 0 1-2 2 2 2 0 0 1-2-2 2 2 0 0 1 2-2 2 2 0 0 1 2 2zM15 8a2 2 0 0 1-2 2 2 2 0 0 1-2-2 2 2 0 0 1 2-2 2 2 0 0 1 2 2z" fill="#444"/><path d="M4.5 4a4.459 4.459 0 0 0-2.795 1H7.31A4.47 4.47 0 0 0 4.5 4zM.76 11a4.498 4.498 0 0 0 3.74 2 4.48 4.48 0 0 0 3.725-2H.76zM12 11v1h3v-1h-3z" fill="#444" opacity=".3"/></svg>
